packages/tokens/icons/folder/size16Px.svg

<svg viewBox="0 0 16 16" fill="none" xmlns="http://www.w3.org/2000/svg" width="1em" height="1em"><mask id="path-1-inside-1_979_6492" fill="currentColor"><path fill-rule="evenodd" clip-rule="evenodd" d="M5.67462 3C6.58587 3 7.38192 3.61598 7.61061 4.49808L7.67568 4.74904C7.71086 4.88477 7.82172 5 7.96193 5L13 5C14.1046 5 15 5.89543 15 7L15 12C15 13.1046 14.1046 14 13 14L3 14C1.89543 14 1 13.1046 1 12L1 5C1 3.89543 1.89543 3 3 3L5.67462 3Z"/></mask><path d="M7.61061 4.49808L8.57861 4.24711V4.24711L7.61061 4.49808ZM7.67568 4.74904L8.64367 4.49808L8.64367 4.49808L7.67568 4.74904ZM6.64262 4.74904C6.52827 4.30799 6.13025 4 5.67462 4V2C7.0415 2 8.23557 2.92397 8.57861 4.24711L6.64262 4.74904ZM6.70768 5L6.64262 4.74904L8.57861 4.24711L8.64367 4.49808L6.70768 5ZM13 6L7.96193 6L7.96193 4L13 4V6ZM14 7C14 6.44772 13.5523 6 13 6V4C14.6569 4 16 5.34315 16 7H14ZM14 12L14 7H16L16 12H14ZM13 13C13.5523 13 14 12.5523 14 12H16C16 13.6569 14.6569 15 13 15V13ZM3 13L13 13V15L3 15V13ZM2 12C2 12.5523 2.44772 13 3 13V15C1.34315 15 0 13.6569 0 12H2ZM2 5L2 12H0L0 5L2 5ZM3 4C2.44771 4 2 4.44771 2 5L0 5C0 3.34315 1.34314 2 3 2V4ZM5.67462 4H3V2L5.67462 2V4ZM8.64367 4.49808C8.61637 4.39277 8.55824 4.28333 8.45734 4.19028C8.35108 4.09229 8.17964 4 7.96193 4L7.96193 6C7.22878 6 6.81868 5.42814 6.70768 5L8.64367 4.49808Z" fill="currentColor" mask="url(#path-1-inside-1_979_6492)"/></svg>

<svg xmlns="http://www.w3.org/2000/svg" fill="none" viewBox="0 0 16 16" width="1em" height="1em"><mask id="iconsFolderSize16Px__a" fill="#fff"><path fill-rule="evenodd" d="M5.675 3A2 2 0 0 1 7.61 4.498l.065.251c.035.136.146.251.286.251H13a2 2 0 0 1 2 2v5a2 2 0 0 1-2 2H3a2 2 0 0 1-2-2V5a2 2 0 0 1 2-2h2.675Z" clip-rule="evenodd"/></mask><path fill="currentColor" d="m7.61 4.498.969-.25-.968.25Zm.066.251.968-.25-.968.25Zm-1.033 0A1 1 0 0 0 5.675 4V2a3 3 0 0 1 2.904 2.247l-1.936.502ZM6.708 5l-.065-.251 1.936-.502.065.251L6.708 5ZM13 6H7.962V4H13v2Zm1 1a1 1 0 0 0-1-1V4a3 3 0 0 1 3 3h-2Zm0 5V7h2v5h-2Zm-1 1a1 1 0 0 0 1-1h2a3 3 0 0 1-3 3v-2ZM3 13h10v2H3v-2Zm-1-1a1 1 0 0 0 1 1v2a3 3 0 0 1-3-3h2Zm0-7v7H0V5h2Zm1-1a1 1 0 0 0-1 1H0a3 3 0 0 1 3-3v2Zm2.675 0H3V2h2.675v2Zm2.969.498a.634.634 0 0 0-.187-.308.733.733 0 0 0-.495-.19v2c-.733 0-1.143-.572-1.254-1l1.936-.502Z" mask="url(#iconsFolderSize16Px__a)"/></svg>
